X: 1
T: The Unfamiliar Way
R: jig
M: 6/8
L: 1/8
K: Gmaj
E|DED G2E|D/E/=FD G2B|ded cAF|DED =F2D|~=F2D FDD|
DGG GFG|BdB cAF|D/E/=FD GEC|A,B,A, G,2:|
D|G2G czB|D=FF FEF|DGG GFG|E/F/GE ~C3|
DGG BdB|cAF DEF|BdB cAF|DEF G2:|
B|d2d gzf|Acc cBc|ded fdB|GAG GBd|
gba gdB|GAB AFD|GAB dgd|cAF G2:|

